public/formular-icons/english/lower-c.svg

<svg style="vertical-align:-.025ex" xmlns="http://www.w3.org/2000/svg" width=".98ex" height="1.025ex" viewBox="0 -442 433 453" xmlns:xlink="http://www.w3.org/1999/xlink"><defs><path id="a" d="M34 159q0 109 86 196t186 87q56 0 88-24t33-63q0-29-19-49t-48-21q-19 0-30 10t-11 30 11 34 22 21 14 6h1q0 2-6 6t-21 8-34 4q-30 0-57-14-21-9-43-31-44-44-64-124t-21-116q0-46 26-69 22-24 58-24h4q112 0 185 85 9 10 12 10 4 0 13-9t10-14-9-15-29-28-45-30-64-25-80-11q-75 0-121 48T34 159Z"/></defs><g stroke="currentColor" fill="currentColor" stroke-width="0"><use data-c="1D450" xlink:href="#a" transform="scale(1 -1)"/></g></svg>

<svg style="vertical-align: -0.025ex" xmlns="http://www.w3.org/2000/svg" width="0.98ex" height="1.025ex" role="img" focusable="false" viewBox="0 -442 433 453" xmlns:xlink="http://www.w3.org/1999/xlink"><defs><path id="MJX-37-TEX-I-1D450" d="M34 159Q34 268 120 355T306 442Q362 442 394 418T427 355Q427 326 408 306T360 285Q341 285 330 295T319 325T330 359T352 380T366 386H367Q367 388 361 392T340 400T306 404Q276 404 249 390Q228 381 206 359Q162 315 142 235T121 119Q121 73 147 50Q169 26 205 26H209Q321 26 394 111Q403 121 406 121Q410 121 419 112T429 98T420 83T391 55T346 25T282 0T202 -11Q127 -11 81 37T34 159Z"></path></defs><g stroke="currentColor" fill="currentColor" stroke-width="0" transform="scale(1,-1)"><g data-mml-node="math"><g data-mml-node="mi"><use data-c="1D450" xlink:href="#MJX-37-TEX-I-1D450"></use></g></g></g></svg>
